X: 140
T: Margaret Lavin
N:"Moderate"
B:O'Neill's 140
Z:Transcribed by henrik.norbeck@mailbox.swipnet.se
M:3/4
L:1/8
K:Dmix
(G>>E)|D z D2 (D/E/G)|A z ">"A2 (G/A/B)|c2 B2 {AB}(A>>G)|E4 {A}(G>>E)|
D z ">"D2 (D/E/G)|A2 B2 (A>>G)|(E2 D2) .D2|D4||
(G/A/B)|c z ">"c2 {c}(B>A)|B z ">"B2 {B}(A>G)|c2 B2 {B}(A>G)|">"E4 (G/A/B)|
c z c2 {c}(B>A)|(G>B) d2 (B>A)|(G>E) (C>D) (E>C)|D2- D z||


